X:1
T:Desperta emalegria
T:Conta as bençãos
T:IECLB HPD 460 LCI 626 
T:Melodia: Edwin O. Excell (1851-1921) Letra John Oatmann Jr (1856-1926) 
T:Instrumentação: Bernhard Sydow 2019
C:Johann Crüger, 1647
Z:Paul Gerhard, 1607-1676
%%score [ ( 1 2 ) ( 3 4 ) ]
L:1/8
Q:1/4=100
M:4/4
K:D
V:1 treble nm="Piano"
V:2 treble 
V:3 bass nm="Piano"
V:4 bass 
V:1
"D" FFFG AAAF |"A" G2 F2 G4 | EFGA cBAG |1"D" F2 G2 A4 :|2"D" F2 E2 D4 || %5
"D""^Estribilho" A3 A dAAF |"A" G2 F2 G4 | E3 G cBAG |"D" [DF]2 [B,G]2 [FA]4 |"D" d3 d"G" c B3 | %10
"A" cc"E"BB"A""A7" A4 |"D" ddcd"G" cBAG |"A7" [CF]2 [CE]2"D" D4 |] %13
V:2
 x8 | x5 A,CD | x8 |1 x5 A,DE :|2 x8 || FA,DE F2 D2 | x5 A,CD | CA,C E2 GFE | x5 DFA | x5 DGB | %10
 x5 CEG | x8 | x8 |] %13
V:3
 [D,D]4 [F,D]4 | [A,,C]4 C,4 | [A,,C]4 [C,E]4 |1 [D,A,D]2 [G,B,]2 [G,C]4 :|2 [D,D]4 [F,A,]4 || %5
 D,4 F,4 | [A,,C]4 C,4 | A,,4 C,4 | [D,D]4 [D,A,]4 | A,4 B,4 | E4 A,2 =G,2 | F,4 D4 | %12
 [A,,G,]4 [D,F,A,]4 |] %13
V:4
 x8 | x8 | x8 |1 x8 :|2 x8 || x8 | x8 | x8 | x8 | F,4 G,4 | [G,B,]2 [^G,B,]2 A,,4 | D,4 G,4 | x8 |] %13

